X:90
T:90. RH Pocket: Alberti Broken
T:Use for continuous flowing fill — Alberti 1-5-3-5 pattern
C:RH eighth-note broken chord pattern; LH anchor
M:4/4
L:1/8
Q:1/4=92
%%score {V1 V2}
V:V1 clef=treble
V:V2 clef=bass
K:C
[V:V1] "C" c g e g c g e g | "F" f c' a c' f c' a c' | "G" g d' b d' g d' b d' | "C" c g e g c g e g |]
[V:V2] C,8 | F,8 | G,8 | C,8 |]

% ═════════════════════════════════════════════════════════════════════
% STYLE DRILLS — GRAND STAFF (#91-96)
% LH + RH patterns paired for specific hymn-playing styles,
% 8 bars through the trefoil path that fits each style.
% ═════════════════════════════════════════════════════════════════════

